src/actions/16/call-start.svg

<svg xmlns="http://www.w3.org/2000/svg" viewBox="0 0 16 16">
  <defs id="defs3051">
    <style type="text/css" id="current-color-scheme">
      .ColorScheme-Text {
        color:#363636;
      }
      </style>
  </defs>
 <path style="fill:currentColor;fill-opacity:1;stroke:none" 
     d="M 3.4882812 2.0019531 C 3.2034307 2.0278481 2.9960938 2.2363281 2.9960938 2.2363281 L 2.4667969 2.765625 L 2.1660156 3.0664062 C 1.7230956 4.7997962 2.1655238 6.7084425 3.5273438 8.0703125 L 7.9296875 12.472656 C 9.2917475 13.834716 11.200194 14.276904 12.933594 13.833984 L 13.234375 13.533203 L 13.763672 13.003906 C 13.763672 13.003906 14.294022 12.473709 13.763672 11.943359 L 11.484375 9.6621094 C 10.954035 9.1317694 10.423828 9.6621094 10.423828 9.6621094 L 10.158203 9.9277344 C 9.7174831 10.368444 9.0071062 10.368444 8.5664062 9.9277344 L 6.0722656 7.4335938 C 5.6315656 6.9928938 5.6315456 6.2825169 6.0722656 5.8417969 L 6.3378906 5.5761719 C 6.3378906 5.5761719 6.8682206 5.045965 6.3378906 4.515625 L 4.0566406 2.2363281 C 3.8577631 2.0374544 3.6591916 1.9864161 3.4882812 2.0019531 z "
     class="ColorScheme-Text"
     />
</svg>

<svg xmlns="http://www.w3.org/2000/svg" viewBox="0 0 16 16">
    <path d="M3.488 2.002c-.285.026-.492.234-.492.234l-.53.53-.3.3A5.218 5.218 0 0 0 3.527 8.07l4.403 4.403a5.218 5.218 0 0 0 5.004 1.361l.3-.3.53-.53s.53-.53 0-1.06l-2.28-2.282c-.53-.53-1.06 0-1.06 0l-.266.266c-.44.44-1.15.44-1.592 0L6.072 7.434a1.123 1.123 0 0 1 0-1.592l.266-.266s.53-.53 0-1.06l-2.281-2.28c-.2-.199-.398-.25-.569-.234z" style="fill:currentColor;fill-opacity:1;stroke:none;color:#050505;opacity:.7"/>
</svg>
